!!!OTL: EINER FARBE EINEM GLAUBEN
!!!ARE: Europa, Mitteleuropa, Deutschland
!!!SCT: F0451
!!!YEM: Copyright 1995, estate of Helmut Schaffrath.
**kern
*ICvox
*Ivox
*M4/4
*k[f#]
*G:
{8.dd
16cc
=1
4b
4b
4g
4g
=2
4.g
8e
4e}
{8.cc
16b
=3
4a
4a
4a
4dd
=4
4b
2r}
{8.b
16b
=5
4b
4b
4b
4b
=6
4.b
8g
4g}
{8.cc
16b
=7
4a
4a
4a
4dd
=8
4b
2r}
{8cc
8b
=9
4a
4dd
4cc#
4ee
=10
2dd
4a}
{8f#
8g
=11
4a
4dd
4.ff#
8ee
=12
2dd
4r}
{8.dd
16cc
=13
4b
4b
4dd
4b
=14
4.cc
8b
4cc}
{8.cc
16b
=15
4a
4a
4a
8g
8a
=16
4b
4r}
{4dd
4b
=17
2.ee
8cc
8a
=18
2g
4b
4a
=19
2g
4r}
==
!!!AGN: Vaterlands -, Heimat - Lied
!!!ONB: ESAC (Essen Associative Code) Database: FINK
!!!AMT: simple quadruple
!!!AIN: vox
!!!EED: Helmut Schaffrath
!!!EEV: 1.0
*-
